Catalina-dark/actions/22/mail-send.svg

<svg xmlns="http://www.w3.org/2000/svg" viewBox="0 0 22 22">
  <defs id="defs3051">
    <style type="text/css" id="current-color-scheme">
      .ColorScheme-Text {
        color:#f2f2f2
      }
      </style>
  </defs>
  <path
     style="fill:#2ecc71;fill-opacity:1;stroke:none"
     d="M 10.576172 2.9882812 L 10.576172 2.9902344 C 10.173482 2.9912344 9.7724406 3.14077 9.4628906 3.4375 C 8.8429906 4.03058 8.8472231 5.0380431 9.4707031 5.6269531 L 15.136719 10.980469 L 9.5117188 16.371094 C 8.8917687 16.964164 8.8939881 17.971757 9.5175781 18.560547 C 10.140838 19.150307 11.13081 19.144561 11.75 18.550781 L 18.382812 12.195312 L 18.523438 12.060547 L 18.525391 12.060547 C 18.834861 11.763967 18.995621 11.363604 18.994141 10.964844 C 18.992141 10.566374 18.829148 10.167437 18.517578 9.8730469 L 11.693359 3.4277344 L 11.693359 3.4296875 C 11.381629 3.1350075 10.978862 2.9869713 10.576172 2.9882812 z M 6.5 8.5 C 5.12397 8.5 4 9.62397 4 11 C 4 12.37602 5.12397 13.5 6.5 13.5 C 7.87603 13.5 9 12.37602 9 11 C 9 9.62397 7.87603 8.5 6.5 8.5 z " />
</svg>

<svg width="22" height="22" viewBox="4 2.988 14.99 16.01" xmlns="http://www.w3.org/2000/svg">
<defs>
<style id="current-color-scheme" type="text/css">.ColorScheme-Text {
        color:#f2f2f2
      }</style>
</defs>
<path d="m10.576 2.9883v0.0019532c-0.40269 1e-3 -0.80373 0.15054-1.1133 0.44727-0.6199 0.59308-0.61567 1.6005 0.0078125 2.1895l5.666 5.3535-5.625 5.3906c-0.61995 0.59307-0.61773 1.6007 0.0058593 2.1895 0.62326 0.58976 1.6132 0.58401 2.2324-0.009766l6.6328-6.3555 0.14063-0.13476h0.001953c0.30947-0.29658 0.47023-0.69694 0.46875-1.0957-2e-3 -0.39847-0.16499-0.79741-0.47656-1.0918l-6.8242-6.4453v0.0019531c-0.31173-0.29468-0.7145-0.44272-1.1172-0.44141zm-4.0762 5.5117c-1.376 0-2.5 1.124-2.5 2.5s1.124 2.5 2.5 2.5 2.5-1.124 2.5-2.5-1.124-2.5-2.5-2.5z" fill="#2ecc71"/>
</svg>
